Libraries/Atlas.Resources/Icons/svg/cancel.svg

<?xml version="1.0" encoding="UTF-8" standalone="no" ?>
<!DOCTYPE svg PUBLIC "-//W3C//DTD SVG 1.1//EN" "http://www.w3.org/Graphics/SVG/1.1/DTD/svg11.dtd">
<svg xmlns="http://www.w3.org/2000/svg" xmlns:xlink="http://www.w3.org/1999/xlink" version="1.1" width="24" height="24" viewBox="0 0 640 640" xml:space="preserve">
<desc>Created with Fabric.js 4.6.0</desc>
<defs>
</defs>
<g transform="matrix(4.96 0 0 4.96 320 320)" id="j8VZXHHnOoIMhnkx03yeA"  >
<g style="" vector-effect="non-scaling-stroke"   >
		<g transform="matrix(1 0 0 1 0 0)" id="VXP5sDMJfypmrAZ-d4uPb"  >
<path style="stroke: none; stroke-width: 1; stroke-dasharray: none; stroke-linecap: butt; stroke-dashoffset: 0; stroke-linejoin: miter; stroke-miterlimit: 4; fill: rgb(0,0,0); fill-rule: nonzero; opacity: 1;" vector-effect="non-scaling-stroke"  transform=" translate(-64.5, -64.5)" d="M 64.5 122.6 C 96.5 122.6 122.6 96.6 122.6 64.5 C 122.6 32.400000000000006 96.5 6.4 64.5 6.4 C 32.5 6.4 6.4 32.5 6.4 64.5 C 6.4 96.5 32.5 122.6 64.5 122.6 z M 64.5 14.6 C 92 14.6 114.4 37 114.4 64.5 C 114.4 92 92 114.4 64.5 114.4 C 37 114.4 14.6 92 14.6 64.5 C 14.6 37 37 14.6 64.5 14.6 z" stroke-linecap="round" />
</g>
		<g transform="matrix(1 0 0 1 0 -0.6)" id="3muM29mGJV769kwxwph8O"  >
<path style="stroke: none; stroke-width: 1; stroke-dasharray: none; stroke-linecap: butt; stroke-dashoffset: 0; stroke-linejoin: miter; stroke-miterlimit: 4; fill: rgb(0,0,0); fill-rule: nonzero; opacity: 1;" vector-effect="non-scaling-stroke"  transform=" translate(-64.5, -63.9)" d="M 42.7 85.7 C 43.5 86.5 44.5 86.9 45.6 86.9 C 46.7 86.9 47.7 86.5 48.5 85.7 L 64.5 69.7 L 80.5 85.7 C 81.3 86.5 82.3 86.9 83.4 86.9 C 84.50000000000001 86.9 85.5 86.5 86.30000000000001 85.7 C 87.9 84.10000000000001 87.9 81.5 86.30000000000001 79.9 L 70.30000000000001 63.900000000000006 L 86.30000000000001 47.900000000000006 C 87.9 46.300000000000004 87.9 43.7 86.30000000000001 42.10000000000001 C 84.70000000000002 40.500000000000014 82.10000000000001 40.50000000000001 80.50000000000001 42.10000000000001 L 64.50000000000001 58.10000000000001 L 48.500000000000014 42.10000000000001 C 46.90000000000001 40.50000000000001 44.30000000000001 40.50000000000001 42.70000000000002 42.10000000000001 C 41.100000000000016 43.70000000000001 41.100000000000016 46.30000000000001 42.70000000000002 47.900000000000006 L 58.70000000000002 63.900000000000006 L 42.70000000000002 79.9 C 41.100000000000016 81.5 41.100000000000016 84.10000000000001 42.7 85.7 z" stroke-linecap="round" />
</g>
</g>
</g>
</svg>

<?xml version='1.0' encoding='utf-8'?>
<svg version="1.1" xmlns="http://www.w3.org/2000/svg" viewBox="0 0 129 129" xmlns:xlink="http://www.w3.org/1999/xlink" enable-background="new 0 0 129 129">
  <g>
    <g>
      <path d="M64.5,122.6c32,0,58.1-26,58.1-58.1S96.5,6.4,64.5,6.4S6.4,32.5,6.4,64.5S32.5,122.6,64.5,122.6z M64.5,14.6    c27.5,0,49.9,22.4,49.9,49.9S92,114.4,64.5,114.4S14.6,92,14.6,64.5S37,14.6,64.5,14.6z"/>
      <path d="m42.7,85.7c0.8,0.8 1.8,1.2 2.9,1.2s2.1-0.4 2.9-1.2l16-16 16,16c0.8,0.8 1.8,1.2 2.9,1.2s2.1-0.4 2.9-1.2c1.6-1.6 1.6-4.2 0-5.8l-16-16 16-16c1.6-1.6 1.6-4.2 0-5.8s-4.2-1.6-5.8,0l-16,16-16-16c-1.6-1.6-4.2-1.6-5.8,0-1.6,1.6-1.6,4.2 0,5.8l16,16-16,16c-1.6,1.6-1.6,4.2-1.42109e-14,5.8z"/>
    </g>
  </g>
</svg>
